src/content/resume/images/bpti.svg

<svg width="128" height="64" viewBox="0 0 128 64" fill="none" xmlns="http://www.w3.org/2000/svg">
<path opacity="0.5" fill-rule="evenodd" clip-rule="evenodd" d="M89.6269 36.8944H87.9572V26.7708H89.5475C90.1569 26.7708 90.3161 26.4795 90.3161 26.0025V23.8559C90.3161 23.3789 90.1569 23.0876 89.5475 23.0876H82.18C81.5706 23.0876 81.4114 23.3789 81.4114 23.8559V26.0025C81.4114 26.4795 81.5706 26.7708 82.18 26.7708H83.7964V36.8944H82.1271C81.5177 36.8944 81.3584 37.1861 81.3584 37.6631V39.7565C81.3584 40.2335 81.5177 40.5252 82.1271 40.5252H89.6269C90.2363 40.5252 90.3956 40.2335 90.3956 39.7565V37.6631C90.3956 37.1861 90.2363 36.8944 89.6269 36.8944Z" fill="currentColor"/>
<path fill-rule="evenodd" clip-rule="evenodd" d="M94.1457 26.7836C95.1669 26.7836 96 25.9504 96 24.9292C96 23.908 95.1669 23.0753 94.1457 23.0753C93.1245 23.0753 92.2914 23.908 92.2914 24.9292C92.2914 25.9504 93.1245 26.7836 94.1457 26.7836Z" fill="currentColor"/>
<path fill-rule="evenodd" clip-rule="evenodd" d="M78.6291 23.0876H66.3325C65.723 23.0876 65.5638 23.3793 65.5638 23.8559V26.0558C65.5638 26.5328 65.723 26.8244 66.3325 26.8244H70.4134V39.7572C70.4134 40.3662 70.705 40.5255 71.1824 40.5255H73.8056C74.283 40.5255 74.5747 40.3662 74.5747 39.7572V26.8244H78.6291C79.2385 26.8244 79.3978 26.5328 79.3978 26.0558V23.8559C79.3978 23.3793 79.2385 23.0876 78.6291 23.0876Z" fill="currentColor"/>
<path fill-rule="evenodd" clip-rule="evenodd" d="M40.5998 36.7623H36.1474V33.4259H40.5101C41.7451 33.4398 42.6402 33.8176 42.6402 35.0396C42.6402 36.2323 41.8984 36.7623 40.5998 36.7623ZM40.1757 26.824C41.5538 26.824 42.3754 27.1109 42.3754 28.295C42.3754 29.3197 41.7127 29.8718 40.1757 29.8718H39.8311C39.8176 29.8718 39.8078 29.8738 39.7947 29.8742H36.1474V26.824H40.1757ZM44.4159 31.4882C44.6542 31.3823 46.3504 30.5342 46.3504 27.8575C46.3504 25.3665 44.4957 23.0613 40.1757 23.0613H32.7553C32.1459 23.0613 31.9866 23.3525 31.9866 23.8296V39.7567C31.9866 40.2338 32.1459 40.5254 32.7553 40.5254H40.5468C44.2305 40.5254 46.8539 38.8027 46.8539 35.4371C46.8539 32.575 44.6277 31.5681 44.4159 31.4882Z" fill="currentColor"/>
<path fill-rule="evenodd" clip-rule="evenodd" d="M56.8977 31.7796H54.3538V26.8241H56.8977C58.9647 26.8241 59.8657 27.9374 59.8657 29.3151C59.8657 30.6402 58.9647 31.7796 56.8977 31.7796ZM56.9246 23.0876H50.9613C50.3519 23.0876 50.1931 23.3785 50.1931 23.8555V39.7565C50.1931 40.3659 50.4843 40.5251 50.9613 40.5251H53.5851C54.0621 40.5251 54.3538 40.3659 54.3538 39.7565V35.3574H56.8977C61.4296 35.3574 63.8676 32.9194 63.8676 29.2357C63.8676 25.5782 61.4825 23.0876 56.9246 23.0876Z" fill="currentColor"/>
</svg>

<svg xmlns="http://www.w3.org/2000/svg" width="128" height="64" fill="none" viewBox="0 0 128 64"><path fill="currentColor" fill-rule="evenodd" d="M89.627 36.894h-1.67V26.771h1.59c.61 0 .77-.291.77-.768v-2.147c0-.477-.16-.768-.77-.768H82.18c-.61 0-.769.29-.769.768v2.146c0 .478.16.769.769.769h1.616v10.123h-1.669c-.61 0-.769.292-.769.77v2.093c0 .477.16.768.77.768h7.499c.61 0 .769-.291.769-.768v-2.094c0-.477-.16-.769-.77-.769Z" clip-rule="evenodd" opacity=".5"/><path fill="currentColor" fill-rule="evenodd" d="M94.146 26.784A1.858 1.858 0 0 0 96 24.929a1.858 1.858 0 0 0-1.854-1.854 1.858 1.858 0 0 0-1.855 1.854c0 1.021.834 1.855 1.855 1.855ZM78.63 23.088H66.332c-.61 0-.77.291-.77.768v2.2c0 .477.16.768.77.768h4.08v12.933c0 .61.292.769.77.769h2.623c.477 0 .769-.16.769-.769V26.824h4.054c.61 0 .769-.291.769-.768v-2.2c0-.477-.16-.768-.769-.768ZM40.6 36.762h-4.453v-3.336h4.363c1.235.014 2.13.392 2.13 1.614 0 1.192-.742 1.722-2.04 1.722Zm-.424-9.938c1.378 0 2.2.287 2.2 1.471 0 1.025-.663 1.577-2.2 1.577h-.345l-.036.002h-3.648v-3.05h4.029Zm4.24 4.664c.238-.106 1.934-.954 1.934-3.63 0-2.492-1.854-4.797-6.174-4.797h-7.42c-.61 0-.77.291-.77.769v15.927c0 .477.16.768.77.768h7.79c3.684 0 6.308-1.722 6.308-5.088 0-2.862-2.226-3.869-2.438-3.949ZM56.898 31.78h-2.544v-4.956h2.544c2.067 0 2.968 1.113 2.968 2.491 0 1.325-.901 2.465-2.968 2.465Zm.027-8.692H50.96c-.61 0-.768.29-.768.767v15.902c0 .609.291.768.768.768h2.624c.477 0 .769-.16.769-.768v-4.4h2.544c4.532 0 6.97-2.438 6.97-6.121 0-3.658-2.386-6.148-6.943-6.148Z" clip-rule="evenodd"/></svg>
